!!!!SEGMENT: pl-wtm--r-66-n--004_noskowski-zygmunt--piesni-ludowe-op-51-oj-nie-jedz-jasiu.krn
!!!cenid: 18xx:2282
!!!COM: Noskowski, Zygmunt
!!!COM-rismid: pe106604
!!!CDT: 1846/05/02-1909/07/23
!!!CNT: Polish
!!!GTL: Pieśni ludowe op. 51
!!!OTL: Oj, nie jedź Jasiu
!!!PDT:
!!!AGN: Secular; Song
!!!SMS-siglum: PL-Wtm
!!!SMS-shelfmark: R 66/N
!!!SMS-shelfwork: 004 G
!!!SMS-variant:
!!!SMS-altvar:
!!!NIFC-rismid: 1001096664
!!!OMD: Allegro
!!!system-decoration: {(s1,s2)}
!!!AIN: 1 bass 1 tenor
!!!key:
**kern	**dynam	**kern	**text	**text	**text	**dynam
*part2	*part2	*part1	*part1	*part1	*part1	*part1
*staff2	*	*staff1	*staff1	*staff1	*staff1	*
*Ibass	*	*Itenor	*	*	*	*
*I"Basy	*	*I"Tenory	*	*	*	*
*I'B	*	*I'T	*	*	*	*
*clefF4	*	*clefG2v2	*	*	*	*
*k[b-e-a-d-]	*	*k[b-e-a-d-]	*	*	*	*
*A-:	*	*A-:	*	*	*	*
*M3/4	*	*M3/4	*	*	*	*
*>[A,A,A,B]	*	*>[A,A,A,B]	*	*	*	*
=1	=1	=1	=1	=1	=1	=1
*^	*	*	*	*	*	*
*	*	*	*^	*	*	*	*
*	*	*	*	*	*	*	*	*^
*	*	*	*	*	*	*	*	*	*^
*>A	*>A	*	*>A	*>A	*	*	*	*	*	*
!!LO:TX:t=P:problem:all\left, middle right:global	!
!	!	!	!LO:TX:t=P:problem=inna dynamika dla każdej zwrotki	!	!	!	!	!	!	!
!	!	!	!LO:TX:t=P:problem=w źródle brak przenośnika oktawowego przy kluczu	!	!	!	!	!	!	!
4A-/	4A-\	.	4c/	4A-\	1. Oj,	2. Oj,	3. Oj,	f	p	f
4F/	4F\	.	4c/	4A-\	nie	sam	nie	.	.	.
4F/	4D-\	.	4d-/	4A-\	jedź	se	jedź	.	.	.
*	*	*	*	*	*	*	*	*	*v	*v
*	*	*	*	*	*	*	*	*v	*v
=2	=2	=2	=2	=2	=2	=2	=2	=2
8E-/	8E-\	.	8B-/	8G\	Ja-	jej	Ja-	.
8E-/	8E-\	.	8G/	8G\	-siu	nie	-siu	.
4E-/	4D-\	.	4B-/	4G\	nie	weź-	nie	.
4E-/	4C\	.	4A-/	4A-\	jedź,	-miesz,	jedź,	.
=3	=3	=3	=3	=3	=3	=3	=3	=3
4E-/	4AA-\	.	4c/	4A-\	Oj,	Oj,	Bo	.
4E-/	4C\	.	4c/	4G\	bo	a-	by-	.
4F/	4BB-\	.	4d-/	4B-\	tam	-ni	-stra	.
=4	=4	=4	=4	=4	=4	=4	=4	=4
8En/	8C\	.	8B-/	8G\	nie	nie	tam	.
8E/	8C\	.	8G/	8G\	prze-	u-	wo-	.
4E/	4C\	.	4B-/	4G\	-je-	-krad-	-dzi-	.
4F/	4F\	.	4A-/	4A-\	-dziesz,	-niesz,	-czka,	.
=5	=5	=5	=5	=5	=5	=5	=5	=5
4G-X/	4E-X\	.	4c/	4A-\	Oj,	Do-	Oj,	.
4G-/	4AA-\	.	4c/	4A-\	dziew-	-pó-	dziew-	.
4F/	4D-\	.	4d-/	4A-\	-czy-	-ki	-czy-	.
!!LO:LB:g=original
=6	=6	=6	=6	=6	=6	=6	=6	=6
8F/	8D-\	.	8B-/	8A-\	-ny	pa-	-ny	.
8F/	8D-\	.	8d-/	8B-\	nie	-ni	nie	.
4A-/	4BB-\	.	4f/	4d-\	da-	mat-	da-	.
(<8F/L	4BB-\	.	(<8a-/L	4d-\	-dzą,	-ce	-dzą,	.
8A-/J)	.	.	8f/J)	.	.	.	.	.
=7	=7	=7	=7	=7	=7	=7	=7	=7
4E-/	4E-\	.	4c/	4A-\	A	Do	I	.
4F/	4F\	.	4c/	4An\	sam	nó-	u-	.
4F/	4BB-\	.	4d-/	4B-\	se	-żek	-to-	.
=8	=8	=8	=8	=8	=8	=8	=8	=8
8E-/	8E-\	.	8B-/	8G\	jej	nie	-pisz	.
8E-/	8E-\	.	8G/	8G\	nie	u-	ko-	.
4E-/	4E-\	.	4B-/	4G\	weź-	-pad-	-nicz-	.
4C/	4AA-\	.	4A-/	4A-\	-miesz.	-niesz.	-ka.	.
=9:|!	=9:|!	=9:|!	=9:|!	=9:|!	=9:|!	=9:|!	=9:|!	=9:|!
*>B	*>B	*	*>B	*>B	*	*	*	*
!	!	!LO:DY:a:rj	!	!	!	!	!	!LO:DY:b:rj
4E-/	4AA-\	ff	4e-/	4c\	.	Hu!	.	ff
[>2E-/	[<2AA-\	.	[>2a-/	[<2c\	.	ha!	.	.
=10	=10	=10	=10	=10	=10	=10	=10	=10
2.E-/_>	2.AA-\_<	.	2.a-/_>	2.c\_<	.	.	.	.
=11	=11	=11	=11	=11	=11	=11	=11	=11
4E-/]	4AA-\]	.	4a-/]	4c\]	.	.	.	.
4r	4ryy	.	4rB	4ryy	.	.	.	.
!	!	!	!LO:TX:a:Bi:t= [inicjały] Po pierwszej\ni drugiej zwrotce\nmała pauza.	!	!	!	!	!
4r	4ryy	.	4rB	4ryy	.	.	.	.
*v	*v	*	*	*	*	*	*	*
*	*	*v	*v	*	*	*	*
==	==	==	==	==	==	==
*-	*-	*-	*-	*-	*-	*-
!!title: @{OTL};
!!!RDF**kern: > = above
!!!RDF**kern: < = below
!!!RDF**kern: | = vertical stroke
!!!RDF**kern: N = linked
!!!RDF**kern: i = editorial accidental
!!!EED: Wojciech Jakubiak-Danek
!!!EST: 2021-06-09
!!!URL-scan: http://repozytorium.nifc.pl/skany/pl-wtm-nut--r66n
!!!ONB-nifc: UWAGA: na podstawie partytur z folderu pl-wtm-r66n
!!!ENC: Marcin Jachim
!!!END: 2021-05-31
